**kern	**kern	**dynam
*part1	*part1	*part1
*staff2	*staff1	*
*I"Piano	*	*
*clefF4	*clefG2	*
*k[b-e-]	*k[b-e-]	*
*M3/4	*M3/4	*
=1	=1	=1
*^	*	*
2F	2.BB-	(2d 2dd	<
4G	.	4e- 4ee-	.
=	=	=	=
2.A-X 2.B-	2.D	2.f 2.ff	[ >
=	=	=	=
2.B-	2E- 2G	2e- 2ee-	]
.	4BB- 4F	4d 4dd	.
*v	*v	*	*
=	=	=
((2.FF 2.E-	2.c 2.f 2.cc	.
=	=	=
2BBB-)) 2D	2B-) 2f 2b-	.
4r	4r	.
*	*clefF4	*
=	=	=
2.GG 2.G	([2.En 2.B-	<
=	=	=
*	*^	*
2.CC 2.C	2A	2.E]	[ >
.	4B-	.	.
*	*v	*v	*
=	=	=
2.FF 2.F	2.E-X 2.A 2.c	]
*	*clefG2	*
=	=	=
*^	*	*
!	!	!	!LO:DY:a
([2.F 2.B-	(2.BBB- [2.FF	2d	<
.	.	4d-X 4en	[
=	=	=	=
!	!	!	!LO:DY:a
2F]) 2A	2FFF) 2FF]	2c) 2f	>
*v	*v	*	*
4r	4r	]
=	=	=
*-	*-	*-
!!!system-decoration: {(s1,s2)}
